src/payment-wire-transfer.svg

<svg xmlns="http://www.w3.org/2000/svg" class="dibsvg-svg dibsvg-wire-transfer" viewBox="0 0 500 312">
    <rect width="500" height="312" fill="#F8F8F8" class="dibsvg-color-holder"/>
    <g class="dibsvg-color-letters" transform="translate(31 68)">
        <polygon points="146.083 .75 131.5 63.25 114.833 .75 104.417 .75 87.75 63.25 73.167 .75 57.542 .75 79.417 82 94 82 109.625 22.625 125.25 82 139.833 82 161.708 .75"/>
        <polygon points="182.542 82 197.125 82 197.125 .75 182.542 .75"/>
        <path d="M271.083333,26.7916667 C271.083333,18.4583333 265.875,14.2916667 257.541667,14.2916667 L238.791667,14.2916667 L238.791667,40.3333333 L257.541667,40.3333333 C265.875,39.2916667 271.083333,34.0833333 271.083333,26.7916667 L271.083333,26.7916667 L271.083333,26.7916667 Z M270.041667,82 L252.333333,51.7916667 L238.791667,51.7916667 L238.791667,82 L225.25,82 L225.25,0.75 L259.625,0.75 C275.25,0.75 285.666667,11.1666667 285.666667,25.75 C285.666667,40.3333333 276.291667,47.625 266.916667,49.7083333 L285.666667,80.9583333 L270.041667,82 L270.041667,82 L270.041667,82 Z"/>
        <polygon points="310.667 82 310.667 .75 364.833 .75 364.833 13.25 325.25 13.25 325.25 35.125 363.792 35.125 363.792 47.625 325.25 47.625 325.25 69.5 364.833 69.5 364.833 82"/>
        <polygon points="15.875 172.625 15.875 127.833 .25 127.833 .25 119.5 40.875 119.5 40.875 127.833 25.25 127.833 25.25 172.625"/>
        <path d="M86.7083333 136.166667C86.7083333 130.958333 82.5416667 127.833333 78.375 127.833333L65.875 127.833333 65.875 144.5 78.375 144.5C83.5833333 144.5 86.7083333 141.375 86.7083333 136.166667L86.7083333 136.166667 86.7083333 136.166667zM85.6666667 172.625L74.2083333 152.833333 65.875 152.833333 65.875 172.625 56.5 172.625 56.5 119.5 79.4166667 119.5C89.8333333 119.5 96.0833333 126.791667 96.0833333 136.166667 96.0833333 145.541667 89.8333333 150.75 83.5833333 151.791667L96.0833333 172.625 85.6666667 172.625 85.6666667 172.625zM133.583333 128.875L124.208333 153.875 142.958333 153.875 133.583333 128.875 133.583333 128.875zM149.208333 172.625L145.041667 162.208333 121.083333 162.208333 116.916667 172.625 106.5 172.625 127.333333 119.5 138.791667 119.5 159.625 172.625 149.208333 172.625 149.208333 172.625z"/>
        <polygon points="209.625 172.625 182.542 135.125 182.542 172.625 173.167 172.625 173.167 119.5 182.542 119.5 208.583 157 208.583 119.5 217.958 119.5 217.958 172.625"/>
        <path d="M233.583333,165.333333 L238.791667,158.041667 C241.916667,162.208333 248.166667,165.333333 255.458333,165.333333 C262.75,165.333333 265.875,161.166667 265.875,158.041667 C265.875,146.583333 235.666667,153.875 235.666667,134.083333 C235.666667,124.708333 242.958333,118.458333 254.416667,118.458333 C262.75,118.458333 269,121.583333 274.208333,125.75 L269,133.041667 C264.833333,128.875 259.625,126.791667 254.416667,126.791667 C249.208333,126.791667 246.083333,129.916667 246.083333,133.041667 C246.083333,143.458333 276.291667,137.208333 276.291667,157 C276.291667,166.375 270.041667,173.666667 256.5,173.666667 C245.041667,173.666667 238.791667,170.541667 233.583333,165.333333"/>
        <polygon points="290.875 172.625 290.875 119.5 327.333 119.5 327.333 127.833 300.25 127.833 300.25 141.375 326.292 141.375 326.292 149.708 300.25 149.708 300.25 172.625"/>
        <polygon points="342.958 172.625 342.958 119.5 378.375 119.5 378.375 127.833 352.333 127.833 352.333 141.375 378.375 141.375 378.375 149.708 352.333 149.708 352.333 164.292 378.375 164.292 378.375 172.625"/>
        <path d="M426.291667,136.166667 C426.291667,130.958333 422.125,127.833333 417.958333,127.833333 L405.458333,127.833333 L405.458333,144.5 L416.916667,144.5 C422.125,144.5 426.291667,141.375 426.291667,136.166667 L426.291667,136.166667 L426.291667,136.166667 Z M425.25,172.625 L413.791667,152.833333 L404.416667,152.833333 L404.416667,172.625 L396.083333,172.625 L396.083333,119.5 L419,119.5 C429.416667,119.5 435.666667,126.791667 435.666667,136.166667 C435.666667,145.541667 429.416667,150.75 423.166667,151.791667 L435.666667,172.625 L425.25,172.625 L425.25,172.625 Z"/>
    </g>
</svg>

<svg xmlns="http://www.w3.org/2000/svg" class="dibsvg-svg dibsvg-wire-transfer" viewBox="0 0 500 312">
    <rect width="500" height="312" fill="#F8F8F8" class="dibsvg-color-holder"/>
    <g class="dibsvg-color-letters" transform="translate(31 68)">
        <polygon points="146.083 .75 131.5 63.25 114.833 .75 104.417 .75 87.75 63.25 73.167 .75 57.542 .75 79.417 82 94 82 109.625 22.625 125.25 82 139.833 82 161.708 .75"/>
        <polygon points="182.542 82 197.125 82 197.125 .75 182.542 .75"/>
        <path d="M271.083 26.792c0-8.334-5.208-12.5-13.541-12.5h-18.75v26.041h18.75c8.333-1.041 13.541-6.25 13.541-13.541zM270.042 82l-17.709-30.208h-13.541V82H225.25V.75h34.375c15.625 0 26.042 10.417 26.042 25s-9.375 21.875-18.75 23.958l18.75 31.25L270.042 82z"/>
        <polygon points="310.667 82 310.667 .75 364.833 .75 364.833 13.25 325.25 13.25 325.25 35.125 363.792 35.125 363.792 47.625 325.25 47.625 325.25 69.5 364.833 69.5 364.833 82"/>
        <polygon points="15.875 172.625 15.875 127.833 .25 127.833 .25 119.5 40.875 119.5 40.875 127.833 25.25 127.833 25.25 172.625"/>
        <path d="M86.708 136.167c0-5.209-4.166-8.334-8.333-8.334h-12.5V144.5h12.5c5.208 0 8.333-3.125 8.333-8.333zm-1.041 36.458l-11.459-19.792h-8.333v19.792H56.5V119.5h22.917c10.416 0 16.666 7.292 16.666 16.667 0 9.375-6.25 14.583-12.5 15.625l12.5 20.833H85.667zm47.916-43.75l-9.375 25h18.75l-9.375-25zm15.625 43.75l-4.166-10.417h-23.959l-4.166 10.417H106.5l20.833-53.125h11.459l20.833 53.125h-10.417z"/>
        <polygon points="209.625 172.625 182.542 135.125 182.542 172.625 173.167 172.625 173.167 119.5 182.542 119.5 208.583 157 208.583 119.5 217.958 119.5 217.958 172.625"/>
        <path d="M233.583 165.333l5.209-7.291c3.125 4.166 9.375 7.291 16.666 7.291 7.292 0 10.417-4.166 10.417-7.291 0-11.459-30.208-4.167-30.208-23.959 0-9.375 7.291-15.625 18.75-15.625 8.333 0 14.583 3.125 19.791 7.292L269 133.042c-4.167-4.167-9.375-6.25-14.583-6.25-5.209 0-8.334 3.125-8.334 6.25 0 10.416 30.209 4.166 30.209 23.958 0 9.375-6.25 16.667-19.792 16.667-11.458 0-17.708-3.125-22.917-8.334"/>
        <polygon points="290.875 172.625 290.875 119.5 327.333 119.5 327.333 127.833 300.25 127.833 300.25 141.375 326.292 141.375 326.292 149.708 300.25 149.708 300.25 172.625"/>
        <polygon points="342.958 172.625 342.958 119.5 378.375 119.5 378.375 127.833 352.333 127.833 352.333 141.375 378.375 141.375 378.375 149.708 352.333 149.708 352.333 164.292 378.375 164.292 378.375 172.625"/>
        <path d="M426.292 136.167c0-5.209-4.167-8.334-8.334-8.334h-12.5V144.5h11.459c5.208 0 9.375-3.125 9.375-8.333zm-1.042 36.458l-11.458-19.792h-9.375v19.792h-8.334V119.5H419c10.417 0 16.667 7.292 16.667 16.667 0 9.375-6.25 14.583-12.5 15.625l12.5 20.833H425.25z"/>
    </g>
</svg>
